icons/speedcurve.svg

<?xml version="1.0" encoding="UTF-8"?>
<svg width="256px" height="256px" viewBox="0 0 256 256" version="1.1" xmlns="http://www.w3.org/2000/svg" xmlns:xlink="http://www.w3.org/1999/xlink" preserveAspectRatio="xMidYMid">
    <g>
        <path d="M60.0411234,162.473435 C71.4519225,162.534848 80.9359018,158.141289 89.1404523,150.347862 C110.154644,130.387919 131.249866,110.514125 152.369824,90.6650663 C174.97392,69.4197244 207.873152,67.0485163 232.56954,84.7967528 C260.303292,104.728548 264.227727,143.457711 239.986815,167.438472 C215.334781,191.826091 189.706969,215.225138 164.496251,239.047249 C161.397474,241.976288 158.389963,245.025594 155.089037,247.711541 C134.69153,264.309145 103.184316,254.662252 97.1360295,229.843892 C94.1242541,217.481197 97.8132738,206.821849 107.016632,198.109792 C124.671043,181.399599 142.368956,164.734612 160.048956,148.052566 C168.113622,140.443377 176.017934,132.649949 184.354692,125.351234 C186.714811,123.28453 193.724375,117.659308 200.107019,124.040246 C206.487957,130.42289 202.947351,135.750432 199.730867,138.782678 C187.007374,150.776897 174.306058,162.792439 161.585977,174.789217 C148.866748,186.786847 136.119372,198.755477 123.413791,210.767608 C116.192695,217.59464 115.280889,225.248183 120.877964,231.324617 C126.608099,237.544347 136.155196,237.590407 142.97967,231.172792 C169.698408,206.048221 196.426529,180.93474 222.987471,155.643844 C234.36927,144.806229 238.022466,131.54367 232.157564,116.771385 C226.244044,101.87798 214.378621,94.33788 198.613499,93.0831868 C186.282364,92.1022913 175.866961,96.5436152 166.933136,105.028787 C145.814031,125.087672 124.623278,145.074056 103.377936,164.99988 C79.1694371,187.705477 42.6562447,188.381015 18.5637472,166.68105 C-4.86685917,145.576445 -6.5360873,110.143091 15.9451829,88.0678258 C43.2234581,61.2808512 71.1977427,35.1932977 99.2240573,9.18336287 C109.410017,-0.269057206 121.972302,-2.20867129 135.060005,2.37253682 C147.398817,6.69188849 155.291187,15.4210048 157.382626,28.5360031 C159.205386,39.9638613 154.972183,49.3975164 146.664425,57.2148264 C127.09684,75.6258071 107.569345,94.0794353 88.0213786,112.510887 C82.5403056,117.679779 77.1274687,122.92629 71.5278353,127.963828 C67.1069823,131.940293 60.8582519,131.932616 56.794786,128.258097 C52.1914012,124.093129 52.4686107,117.910929 57.6417679,113.017541 C73.7489237,97.7752787 89.9072567,82.5858998 106.04256,67.3734912 C114.317053,59.5715343 122.601781,51.7815187 130.851538,43.9539733 C137.631657,37.5201522 138.494845,30.2291139 133.214216,24.5527147 C127.752761,18.6826953 118.743023,18.7134016 112.260584,24.8265125 C86.1960602,49.4017812 60.1613897,74.0060502 34.1616903,98.6487021 C21.6992007,110.462095 18.1142412,124.90514 23.9092008,139.215125 C29.5855999,153.229988 43.9663798,162.489641 60.0411234,162.473435" fill="#4295C2" fill-rule="nonzero"></path>
    </g>
</svg>

<svg xmlns="http://www.w3.org/2000/svg" viewBox="0 0 256 255.975">
  <path fill="#4295c2" d="M60.041 162.473c11.41.062 20.895-4.332 29.1-12.125 21.014-19.96 42.109-39.834 63.229-59.683 22.604-21.245 55.503-23.616 80.2-5.868 27.733 19.932 31.658 58.66 7.417 82.641-24.652 24.388-50.28 47.787-75.49 71.61-3.1 2.928-6.107 5.978-9.408 8.664-20.397 16.597-51.905 6.95-57.953-17.868-3.012-12.363.677-23.022 9.88-31.734 17.655-16.71 35.353-33.375 53.033-50.057 8.065-7.61 15.969-15.403 24.306-22.702 2.36-2.066 9.37-7.692 15.752-1.31 6.381 6.382 2.84 11.71-.376 14.742-12.724 11.994-25.425 24.01-38.145 36.006-12.72 11.998-25.467 23.966-38.172 35.979-7.221 6.827-8.133 14.48-2.536 20.557 5.73 6.22 15.277 6.265 22.102-.152 26.718-25.125 53.447-50.238 80.007-75.53 11.382-10.837 15.035-24.1 9.17-38.872-5.913-14.893-17.778-22.433-33.543-23.688-12.332-.98-22.747 3.46-31.68 11.946a13877.596 13877.596 0 0 1-63.556 59.97c-24.209 22.706-60.722 23.382-84.814 1.682-23.43-21.105-25.1-56.538-2.619-78.613C43.223 61.28 71.198 35.193 99.225 9.183c10.185-9.452 22.747-11.392 35.835-6.81 12.339 4.319 20.231 13.048 22.323 26.163 1.822 11.428-2.41 20.862-10.719 28.679-19.567 18.41-39.095 36.864-58.643 55.296-5.48 5.169-10.894 10.415-16.493 15.453-4.421 3.976-10.67 3.969-14.733.294-4.604-4.165-4.326-10.347.847-15.24 16.107-15.243 32.265-30.432 48.4-45.645 8.275-7.801 16.56-15.591 24.81-23.419 6.78-6.434 7.643-13.725 2.362-19.401-5.461-5.87-14.471-5.84-20.953.274-26.065 24.575-52.1 49.179-78.1 73.822-12.462 11.813-16.047 26.256-10.252 40.566 5.677 14.015 20.057 23.275 36.132 23.258"/>
</svg>
